X:12 
T:The Bowling Green  
D:"We're Irish Still" 
C:file ID tfr/012bowl_g
H:MP3 file at www.capeirish.com/tune_vault. Boston musician
Jimmy Kelly got this tune from Bill Lamey, the Cape Breton 
fiddler.
B:REC1.71
R:reel
M:C
Q:360
K:C
G,2|CccG ECCE|D_BBF D_B,B,D|CccG ECCE|e2 d2 c3D|
EGcG ECCE|D_BBF D_B,B,D|CccG ECCE|e2 d2 c2|]
EF|GECE G3E|FD_B,D F2 EF|GECD EFGE|GFDB, C2 EF|
GECE G3E|FD_B,D F2 ED|CEDF EGFA|GEFD C4|]
%
P:setting in D
K:D
A,2|DddA FDDF|E=ccG E=CCE|DddA FDDF|f2 e2 d3E|
FAdA FDDF|E=ccG E=CCE|DddA FDDF|f2 e2 d2|]
FG|AFDF A3F|GE=CE G2 FG|AFDE FGAF|AGE=C D2 FG|
AFDF A3F|GE=CE G2 FE|DFEG FAGB|AFGE D4|]

